X: 1
T: Ardrossan Hornpipe
C: Muriel Johnstone
R: hornpipe
Z: 2012 John Chambers <jc:trillian.mit.edu>
M: C|
L: 1/8
K: A
a2 |\
"A"a2AB cAec | "E7"B2EG BGdB | "A"cAeA fAeA | "E7"B2E2 E2a2 |
"A"a2AB cAec | "E7"B2EG BGdB | "A"cA"D"df "A"ec"E7"Bd | "A"c2"D"A2 "A"A2 ||
|: E2 |\
"A"A2EA cAGA | "Bm"FBcB dB^AB | "E7"B2ef gefg | "A"a2A2 "E7"BEFG |
"A"A2EA cAGA | "Bm"FBcB dB^AB | "E7"B2gf ecBd | "A"c2"D"A2 "A"A2 :|
